X:1
T:Portsmouth -- Hornpipe
R:hornpipe
B:Cole's 1000 Fiddle Tunes
S: Bob Puckette <BobP:at:workcom.com> 2003-3-7
M:2/4
L:1/16
K:A
ue2|AcBc AFFE|Acea .f2(fg)|agfe fecA|BcBA .F2.E2|
AcBc AFEF|Acea .f2(fg)|agfe fecA|B2A2A2:|
|:(ucd)|"0"eaga fece|faga .f2(fg)|agfe fecA|BcBA .F2.E2|
AcBc AFEF|Acea .f2(fg)|agfe fecA|B2A2A2:|
